X:191
T:Drouth, The
M:9/8
L:1/8
B:Thompson's Compleat Collection of 200 Favourite Country Dances, vol. 2 (London, 1765)
Z:Transcribed and edited by Flynn Titford-Mock, 2007
Z:abc's:AK/Fiddler's Companion
K:Bb
F | (D/E/F)D (BFE) D2B, | (D/E/F)D ECC C2F | (D/E/F)D (BFE) D2B, | (D/E/F)E DB,B, B,2 :|
|: F | B>cB dBg f(e/d/c/B/) | A2F (A/B/c)c c2F | B>cd/e/ fga bag | (fb)B "tr"c2B B2 :|

